**kern	**kern	**dynam
*part1	*part1	*part1
*staff2	*staff1	*
*I"Piano	*	*
*clefF4	*clefG2	*
*k[b-]	*k[b-]	*
=1	=1	=1
4CC 4C	(4.cc 4.aa 4.ccc	.
4G 4c 4e	.	.
.	8b-) 8gg 8bb-	.
4G 4c 4e	8b-L 8gg 8bb-	.
.	8ccJ 8aa 8ccc	.
=	=	=
*	*^	*
4FF 4F	(4b- 4gg 4bb-	4ryy	.
4A 4c 4f	4a) 4ff 4aa	4ryy	.
4BB- 4B-	4dd	(8ddL 8bb-	.
.	.	8b-J) 8gg	.
*	*v	*v	*
=	=	=
4C 4c	4a 4cc 4ff	.
4r	4r	.
4CC 4C	4g 4b- 4cc 4ee	.
=	=	=
*^	*	*
4FF 4F	4ryy	4a 4cc 4ff	.
4F 4A 4c	4ryy	4r	.
(8.B-L	4C	(8.ggL 8.eee	p
16GJk)	.	16bb-Jk) 16ggg	.
=	=	=	=
(4F 4A	4ryy	4aa 4fff	.
4A) 4c	4ryy	4r	.
(8.B-L	4C	(8.gL 8.ee	pp
16GJk)	.	16b-Jk) 16gg	.
*v	*v	*	*
=	=	=
4F 4A	4a 4ff	.
4FF 4C 4F	4A 4f	.
4FF 4C 4F	4A 4f	.
=	=	=
2FF 2C 2F	2A 2f	.
=:|!	=:|!	=:|!
*-	*-	*-
!!!system-decoration: {(s1,s2)}
